src/assets/duotone/Polyswarm.svg

<svg width="24" height="24" viewBox="0 0 24 24"  xmlns="http://www.w3.org/2000/svg">
<path d="M14.5 18H3.5C3.09 18 2.75 17.66 2.75 17.25C2.75 16.84 3.09 16.5 3.5 16.5H14.5C17.95 16.5 20.75 13.7 20.75 10.25C20.75 6.8 17.95 4 14.5 4H9.5C9.09 4 8.75 3.66 8.75 3.25C8.75 2.84 9.09 2.5 9.5 2.5H14.5C18.77 2.5 22.25 5.98 22.25 10.25C22.25 14.52 18.77 18 14.5 18Z" />
<path opacity="0.4" d="M13.8099 14.89H7.99994C7.58994 14.89 7.24994 14.55 7.24994 14.14C7.24994 13.73 7.58994 13.39 7.99994 13.39H13.8099C15.4299 13.39 16.7499 12.07 16.7499 10.45C16.7499 8.83 15.4299 7.51 13.8099 7.51H3.16992C2.75992 7.51 2.41992 7.17 2.41992 6.76C2.41992 6.35 2.74992 6 3.16992 6H13.8099C16.2599 6 18.2499 7.99 18.2499 10.44C18.2499 12.89 16.2599 14.89 13.8099 14.89Z" />
<path d="M8.5 11.5H5.5C5.09 11.5 4.75 11.16 4.75 10.75C4.75 10.34 5.09 10 5.5 10H8.5C8.91 10 9.25 10.34 9.25 10.75C9.25 11.16 8.91 11.5 8.5 11.5Z" />
<path opacity="0.4" d="M6.5 21.5H2.5C2.09 21.5 1.75 21.16 1.75 20.75C1.75 20.34 2.09 20 2.5 20H6.5C6.91 20 7.25 20.34 7.25 20.75C7.25 21.16 6.91 21.5 6.5 21.5Z" />
</svg>

<?xml version="1.0" encoding="UTF-8"?>
<svg width="24" height="24" viewBox="0 0 24 24" xmlns="http://www.w3.org/2000/svg">
 <path d="m14.5 18h-11c-0.41 0-0.75-0.34-0.75-0.75s0.34-0.75 0.75-0.75h11c3.45 0 6.25-2.8 6.25-6.25s-2.8-6.25-6.25-6.25h-5c-0.41 0-0.75-0.34-0.75-0.75s0.34-0.75 0.75-0.75h5c4.27 0 7.75 3.48 7.75 7.75s-3.48 7.75-7.75 7.75z"/>
 <path d="m13.81 14.89h-5.81c-0.41 0-0.75-0.34-0.75-0.75s0.34-0.75 0.75-0.75h5.81c1.62 0 2.94-1.32 2.94-2.94s-1.32-2.94-2.94-2.94h-10.64c-0.41 0-0.75-0.34-0.75-0.75s0.33-0.76 0.75-0.76h10.64c2.45 0 4.44 1.99 4.44 4.44s-1.99 4.45-4.44 4.45z" opacity=".4"/>
 <path d="m8.5 11.5h-3c-0.41 0-0.75-0.34-0.75-0.75s0.34-0.75 0.75-0.75h3c0.41 0 0.75 0.34 0.75 0.75s-0.34 0.75-0.75 0.75z"/>
 <path d="m6.5 21.5h-4c-0.41 0-0.75-0.34-0.75-0.75s0.34-0.75 0.75-0.75h4c0.41 0 0.75 0.34 0.75 0.75s-0.34 0.75-0.75 0.75z" opacity=".4"/>
</svg>
